src/resources/img/cc.svg

<?xml version="1.0" encoding="UTF-8" standalone="no"?>
<svg
   xmlns:dc="http://purl.org/dc/elements/1.1/"
   xmlns:cc="http://creativecommons.org/ns#"
   xmlns:rdf="http://www.w3.org/1999/02/22-rdf-syntax-ns#"
   xmlns:svg="http://www.w3.org/2000/svg"
   xmlns="http://www.w3.org/2000/svg"
   xmlns:xlink="http://www.w3.org/1999/xlink"
   xmlns:sodipodi="http://sodipodi.sourceforge.net/DTD/sodipodi-0.dtd"
   xmlns:inkscape="http://www.inkscape.org/namespaces/inkscape"
   data-name="Layer 1"
   id="Layer_1"
   viewBox="0 0 40.809921 33.014244"
   version="1.1"
   sodipodi:docname="dc.svg"
   width="40.809921"
   height="33.014244"
   inkscape:version="0.92.3 (2405546, 2018-03-11)">
  <metadata
     id="metadata37">
    <rdf:RDF>
      <cc:Work
         rdf:about="">
        <dc:format>image/svg+xml</dc:format>
        <dc:type
           rdf:resource="http://purl.org/dc/dcmitype/StillImage" />
      </cc:Work>
    </rdf:RDF>
  </metadata>
  <sodipodi:namedview
     pagecolor="#ffffff"
     bordercolor="#666666"
     borderopacity="1"
     objecttolerance="10"
     gridtolerance="10"
     guidetolerance="10"
     inkscape:pageopacity="0"
     inkscape:pageshadow="2"
     inkscape:window-width="1920"
     inkscape:window-height="951"
     id="namedview35"
     showgrid="false"
     inkscape:zoom="9.8333333"
     inkscape:cx="1.7508977"
     inkscape:cy="13.215202"
     inkscape:window-x="0"
     inkscape:window-y="27"
     inkscape:window-maximized="1"
     inkscape:current-layer="Layer_1" />
  <defs
     id="defs4">
    <linearGradient
       inkscape:collect="always"
       id="linearGradient894">
      <stop
         style="stop-color:#00ff66;stop-opacity:1"
         offset="0"
         id="stop890" />
      <stop
         style="stop-color:#0082af;stop-opacity:1"
         offset="1"
         id="stop892" />
    </linearGradient>
    <style
       id="style2">
      .cls-1, .cls-2, .cls-3 {
        fill: none;
        stroke: #353535;
        stroke-width: 2px;
      }

      .cls-1, .cls-2 {
        stroke-linecap: round;
      }

      .cls-1 {
        stroke-miterlimit: 10;
      }

      .cls-2, .cls-3 {
        stroke-linejoin: round;
      }
    </style>
    <linearGradient
       inkscape:collect="always"
       xlink:href="#linearGradient894"
       id="linearGradient896"
       x1="1.5254236"
       y1="0.74440819"
       x2="39.589581"
       y2="31.964746"
       gradientUnits="userSpaceOnUse" />
  </defs>
  <title
     id="title6" />
  <g
     id="g842"
     style="stroke:url(#linearGradient896)">
    <g
       transform="translate(-1.5000161,-14)"
       id="g32"
       style="stroke:url(#linearGradient896)">
      <path
         inkscape:connector-curvature="0"
         id="polyline8"
         d="m 10.06,30 h 9.167 l 4.047,1.273 h 3.83"
         style="fill:none;stroke:url(#linearGradient896);stroke-width:2px;stroke-linecap:round;stroke-miterlimit:10" />
      <path
         style="fill:none;stroke:url(#linearGradient896);stroke-width:2px;stroke-linecap:round;stroke-linejoin:round"
         inkscape:connector-curvature="0"
         id="path10"
         d="m 28.75863,36.92765 4.3016,-9.10758 A 2.0484,2.0484 0 0 0 31.87255,25.10694 2.0017,2.0017 0 0 0 29.33349,26.354 L 24.5,37.02051 30.72656,45 v 1"
         class="cls-2" />
      <path
         style="fill:none;stroke:url(#linearGradient896);stroke-width:2px;stroke-linecap:round;stroke-linejoin:round"
         inkscape:connector-curvature="0"
         id="path12"
         d="m 6.75863,36.92765 4.3016,-9.10758 A 2.0484,2.0484 0 0 0 9.87255,25.10694 2.0017,2.0017 0 0 0 7.33349,26.354 L 2.5,37.02051 8.72656,45 v 1"
         class="cls-2" />
      <path
         inkscape:connector-curvature="0"
         id="polyline14"
         d="M 17.453,46 V 45 L 11.227,37.021 14.162,30"
         style="fill:none;stroke:url(#linearGradient896);stroke-width:2px;stroke-linecap:round;stroke-linejoin:round" />
      <path
         inkscape:connector-curvature="0"
         id="polyline16"
         d="M 39.453,46 V 45 L 33.227,37.021 41.31,21 H 3.727 v 3.354 l 2.079,4.579"
         style="fill:none;stroke:url(#linearGradient896);stroke-width:2px;stroke-linecap:round;stroke-linejoin:round" />
      <path
         inkscape:connector-curvature="0"
         id="line18"
         d="m 16.726561,21 v 9"
         style="fill:none;stroke:url(#linearGradient896);stroke-width:2px;stroke-linecap:round;stroke-linejoin:round" />
      <path
         inkscape:connector-curvature="0"
         id="polyline20"
         d="m 16.727,25 h 3 l 1.916,2.083 h 7.206"
         style="fill:none;stroke:url(#linearGradient896);stroke-width:2px;stroke-linecap:round;stroke-linejoin:round" />
      <path
         sodipodi:nodetypes="ssccss"
         style="fill:none;stroke:url(#linearGradient896);stroke-width:2px;stroke-linecap:round;stroke-linejoin:round"
         inkscape:connector-curvature="0"
         id="path24"
         d="m 32,15 c -1.104569,0 -2,0.895431 -2,2 v 4 l 10.975189,-0.3955 v -4 C 40.975189,15.49993 33.104569,15 32,15 Z"
         class="cls-2" />
    </g>
  </g>
</svg>

<svg xmlns="http://www.w3.org/2000/svg" xmlns:xlink="http://www.w3.org/1999/xlink" data-name="Layer 1" id="Layer_1" version="1.1" width="40.81" height="33.014"><defs id="defs4"><linearGradient id="linearGradient894"><stop offset="0" id="stop890" stop-color="#0f6" stop-opacity="1"/><stop offset="1" id="stop892" stop-color="#0082af" stop-opacity="1"/></linearGradient><linearGradient xlink:href="#linearGradient894" id="linearGradient896" x1="1.525" y1=".744" x2="39.59" y2="31.965" gradientUnits="userSpaceOnUse"/><style id="style2">.cls-2{fill:none;stroke:#353535;stroke-width:2px;stroke-linecap:round;stroke-linejoin:round}</style></defs><g id="g842" stroke="url(#linearGradient896)"><g transform="translate(-1.5 -14)" id="g32" stroke="url(#linearGradient896)"><path id="polyline8" d="M10.06 30h9.167l4.047 1.273h3.83" fill="none" stroke="url(#linearGradient896)" stroke-width="2" stroke-linecap="round" stroke-miterlimit="10"/><path id="path10" d="M28.759 36.928l4.301-9.108a2.048 2.048 0 00-1.187-2.713 2.002 2.002 0 00-2.54 1.247L24.5 37.021 30.727 45v1" class="cls-2" fill="none" stroke="url(#linearGradient896)" stroke-width="2" stroke-linecap="round" stroke-linejoin="round"/><path id="path12" d="M6.759 36.928l4.301-9.108a2.048 2.048 0 00-1.187-2.713 2.002 2.002 0 00-2.54 1.247L2.5 37.021 8.727 45v1" class="cls-2" fill="none" stroke="url(#linearGradient896)" stroke-width="2" stroke-linecap="round" stroke-linejoin="round"/><path id="polyline14" d="M17.453 46v-1l-6.226-7.979L14.162 30" fill="none" stroke="url(#linearGradient896)" stroke-width="2" stroke-linecap="round" stroke-linejoin="round"/><path id="polyline16" d="M39.453 46v-1l-6.226-7.979L41.31 21H3.727v3.354l2.079 4.579" fill="none" stroke="url(#linearGradient896)" stroke-width="2" stroke-linecap="round" stroke-linejoin="round"/><path id="line18" d="M16.727 21v9" fill="none" stroke="url(#linearGradient896)" stroke-width="2" stroke-linecap="round" stroke-linejoin="round"/><path id="polyline20" d="M16.727 25h3l1.916 2.083h7.206" fill="none" stroke="url(#linearGradient896)" stroke-width="2" stroke-linecap="round" stroke-linejoin="round"/><path id="path24" d="M32 15a2 2 0 00-2 2v4l10.975-.396v-4C40.975 15.5 33.105 15 32 15z" class="cls-2" fill="none" stroke="url(#linearGradient896)" stroke-width="2" stroke-linecap="round" stroke-linejoin="round"/></g></g></svg>
